public/library/seiscan-icon-dark.svg

<svg width="130" height="130" viewBox="0 0 130 130" fill="none" xmlns="http://www.w3.org/2000/svg">
<path fill-rule="evenodd" clip-rule="evenodd" d="M64.9642 129.695C84.1796 129.695 101.443 121.338 113.318 108.059C107.794 103.258 99.4696 102.966 93.5889 107.712L92.4654 108.618C81.6982 117.306 66.009 116.023 56.7965 105.701C51.7718 100.071 43.1667 99.4967 37.438 104.408L24.485 115.513C35.5791 124.388 49.6518 129.695 64.9642 129.695ZM85.9896 98.2938C96.2452 90.0184 110.66 90.3152 120.524 98.3078C126.42 88.5391 129.812 77.0895 129.812 64.8475C129.812 51.2447 125.624 38.6203 118.466 28.1932C113.852 27.2105 108.851 28.3582 105.054 31.7224L103.974 32.6799C93.6189 41.8559 77.8874 41.2982 68.2083 31.4123C62.9293 26.0206 54.3067 25.8435 48.8108 31.0141L33.7373 45.195L25.4452 36.3811L40.5187 22.2001C50.8139 12.5144 66.9661 12.8461 76.8551 22.9462C82.0221 28.2237 90.4202 28.5214 95.948 23.6229L97.0283 22.6654C100.384 19.692 104.266 17.6874 108.331 16.6332C96.8419 6.29289 81.638 0 64.9642 0C32.045 0 4.85497 24.529 0.674023 56.3066C10.6729 51.5085 23.0064 53.3548 31.1591 61.7035C36.3059 66.974 44.593 67.5303 50.3981 62.9951L58.826 56.4108C69.4177 48.136 84.3907 48.5365 94.5248 57.3661L110.933 71.6615L102.984 80.7856L86.5755 66.4902C80.8129 61.4696 72.299 61.2417 66.276 65.9471L57.8483 72.5312C47.1827 80.8637 31.957 79.8415 22.501 70.1582C17.0024 64.5273 8.00934 64.3309 2.27007 69.7163L0.446289 71.4275C1.81116 84.9719 7.34388 97.286 15.7424 107.068L29.5615 95.2208C40.2929 86.0206 56.4126 87.0973 65.825 97.6432C70.743 103.153 79.1181 103.838 84.8662 99.2004L85.9896 98.2938Z" fill="#ECEDEE"/>
</svg>

<svg xmlns="http://www.w3.org/2000/svg" width="130" height="130" fill="none" viewBox="0 0 130 130"><path fill="#ecedee" fill-rule="evenodd" d="M64.964 129.695c19.216 0 36.479-8.357 48.354-21.636-5.524-4.801-13.848-5.093-19.73-.347l-1.123.906c-10.767 8.688-26.456 7.405-35.668-2.917-5.025-5.63-13.63-6.204-19.359-1.293l-12.953 11.105a64.58 64.58 0 0 0 40.48 14.182M85.99 98.294c10.255-8.276 24.67-7.979 34.534.014 5.896-9.769 9.288-21.219 9.288-33.46 0-13.603-4.188-26.228-11.346-36.655a15.36 15.36 0 0 0-13.412 3.53l-1.08.957c-10.355 9.176-26.087 8.618-35.766-1.268-5.279-5.391-13.901-5.568-19.397-.398L33.737 45.195l-8.292-8.814 15.074-14.18c10.295-9.687 26.447-9.355 36.336.745 5.167 5.278 13.565 5.575 19.093.677l1.08-.958a27.36 27.36 0 0 1 11.303-6.032C96.841 6.293 81.638 0 64.964 0 32.045 0 4.855 24.529.674 56.307c9.999-4.799 22.332-2.952 30.485 5.396a14.453 14.453 0 0 0 19.24 1.292l8.427-6.584c10.592-8.275 25.565-7.875 35.699.955l16.408 14.296-7.949 9.124L86.576 66.49a15.95 15.95 0 0 0-20.3-.543l-8.428 6.584c-10.665 8.333-25.891 7.31-35.347-2.373-5.499-5.63-14.492-5.827-20.23-.442L.445 71.428c1.365 13.544 6.898 25.858 15.296 35.64l13.82-11.847c10.73-9.2 26.85-8.124 36.263 2.422 4.918 5.51 13.293 6.195 19.041 1.557z" clip-rule="evenodd"/></svg>
